Numix/16/status/indicator-keyboard-Bg-3.svg

<?xml version="1.0" encoding="UTF-8" standalone="no"?>
<svg
   xmlns:dc="http://purl.org/dc/elements/1.1/"
   xmlns:cc="http://creativecommons.org/ns#"
   xmlns:rdf="http://www.w3.org/1999/02/22-rdf-syntax-ns#"
   xmlns:svg="http://www.w3.org/2000/svg"
   xmlns="http://www.w3.org/2000/svg"
   xmlns:sodipodi="http://sodipodi.sourceforge.net/DTD/sodipodi-0.dtd"
   xmlns:inkscape="http://www.inkscape.org/namespaces/inkscape"
   viewBox="0 0 16 16"
   id="svg2"
   version="1.1"
   inkscape:version="0.91 r13725"
   sodipodi:docname="indicator-keyboard-Bg-3.svg">
  <metadata
     id="metadata14">
    <rdf:RDF>
      <cc:Work
         rdf:about="">
        <dc:format>image/svg+xml</dc:format>
        <dc:type
           rdf:resource="http://purl.org/dc/dcmitype/StillImage" />
      </cc:Work>
    </rdf:RDF>
  </metadata>
  <defs
     id="defs12" />
  <sodipodi:namedview
     pagecolor="#ffffff"
     bordercolor="#666666"
     borderopacity="1"
     objecttolerance="10"
     gridtolerance="10"
     guidetolerance="10"
     inkscape:pageopacity="0"
     inkscape:pageshadow="2"
     inkscape:window-width="459"
     inkscape:window-height="369"
     id="namedview10"
     showgrid="false"
     inkscape:zoom="14.75"
     inkscape:cx="8"
     inkscape:cy="8"
     inkscape:window-x="65"
     inkscape:window-y="24"
     inkscape:window-maximized="0"
     inkscape:current-layer="svg2" />
  <path
     style="fill:#ececec;fill-opacity:1"
     d="M 1.5996094 0 C 0.71320937 2.9605947e-16 0 0.71320937 0 1.5996094 L 0 14.400391 C 2.9605947e-16 15.286791 0.71320937 16 1.5996094 16 L 14.400391 16 C 15.286791 16 16 15.286791 16 14.400391 L 16 1.5996094 C 16 0.71320937 15.286791 0 14.400391 0 L 1.5996094 0 z M 3.1386719 4.8046875 C 3.4746719 4.8046875 3.7917969 4.8327187 4.0917969 4.8867188 C 4.3977969 4.9407188 4.6645781 5.03025 4.8925781 5.15625 C 5.1205781 5.28225 5.3015938 5.4501562 5.4335938 5.6601562 C 5.5715937 5.8641562 5.640625 6.1197813 5.640625 6.4257812 C 5.640625 6.7617813 5.5529063 7.0490625 5.3789062 7.2890625 C 5.2109062 7.5230625 4.9833125 7.6853906 4.6953125 7.7753906 C 4.8753125 7.8173906 5.0394531 7.8770781 5.1894531 7.9550781 C 5.3394531 8.0330781 5.4719375 8.1357187 5.5859375 8.2617188 C 5.6999375 8.3817188 5.7876562 8.5309375 5.8476562 8.7109375 C 5.9136562 8.8849375 5.9453125 9.0957969 5.9453125 9.3417969 C 5.9453125 9.9297971 5.7121406 10.379406 5.2441406 10.691406 C 4.7761406 10.997406 4.0522188 11.150391 3.0742188 11.150391 C 2.9722187 11.150391 2.8528437 11.144813 2.7148438 11.132812 C 2.5828438 11.126813 2.4447812 11.113703 2.3007812 11.095703 C 2.1627812 11.083703 2.0302969 11.068781 1.9042969 11.050781 C 1.7782969 11.026781 1.6720312 11.002516 1.5820312 10.978516 L 1.5820312 4.9765625 C 1.6900312 4.9465625 1.8094063 4.9222969 1.9414062 4.9042969 C 2.0734063 4.8802969 2.2077031 4.8616094 2.3457031 4.8496094 C 2.4897031 4.8316094 2.6277656 4.8204531 2.7597656 4.8144531 C 2.8977656 4.8084531 3.0246719 4.8046875 3.1386719 4.8046875 z M 3.1386719 5.3261719 C 2.9166719 5.3261719 2.7263125 5.3337031 2.5703125 5.3457031 C 2.4203125 5.3577031 2.2953594 5.372625 2.1933594 5.390625 L 2.1933594 7.5859375 L 3.3808594 7.5859375 C 3.6028594 7.5859375 3.8137188 7.5710156 4.0117188 7.5410156 C 4.2097187 7.5050156 4.3794375 7.4453281 4.5234375 7.3613281 C 4.6734375 7.2713281 4.791 7.1537656 4.875 7.0097656 C 4.959 6.8597656 5.0019531 6.6713594 5.0019531 6.4433594 C 5.0019531 6.2393594 4.9552344 6.0676875 4.8652344 5.9296875 C 4.7752344 5.7856875 4.6465156 5.668125 4.4785156 5.578125 C 4.3165156 5.488125 4.1225312 5.426625 3.8945312 5.390625 C 3.6665312 5.348625 3.4146719 5.3261719 3.1386719 5.3261719 z M 9.1484375 6.3535156 C 9.5804375 6.3535156 9.9255938 6.3833594 10.183594 6.4433594 C 10.447594 6.4973594 10.664031 6.5514688 10.832031 6.6054688 L 10.832031 10.853516 C 10.832031 11.549516 10.651016 12.043891 10.291016 12.337891 C 9.9310157 12.637891 9.3881094 12.787109 8.6621094 12.787109 C 8.3621094 12.787109 8.08975 12.764797 7.84375 12.716797 C 7.60375 12.674797 7.3966563 12.6225 7.2226562 12.5625 L 7.3398438 12.03125 C 7.4838438 12.09725 7.6797813 12.155125 7.9257812 12.203125 C 8.1777812 12.251125 8.4296406 12.275391 8.6816406 12.275391 C 9.2336406 12.275391 9.6309531 12.167172 9.8769531 11.951172 C 10.128953 11.741172 10.255859 11.377328 10.255859 10.861328 L 10.255859 10.556641 C 10.219859 10.586641 10.16575 10.622062 10.09375 10.664062 C 10.02175 10.700062 9.9322188 10.73925 9.8242188 10.78125 C 9.7222187 10.82325 9.6008906 10.858672 9.4628906 10.888672 C 9.3308906 10.912672 9.1816719 10.925781 9.0136719 10.925781 C 8.7436719 10.925781 8.4824688 10.882828 8.2304688 10.798828 C 7.9784688 10.714828 7.7564531 10.582344 7.5644531 10.402344 C 7.3784531 10.222344 7.2292344 9.9929377 7.1152344 9.7109375 C 7.0012344 9.4229375 6.9433594 9.0740156 6.9433594 8.6660156 C 6.9433594 8.3360156 6.9956562 8.0300469 7.0976562 7.7480469 C 7.1996562 7.4660469 7.3432969 7.2235312 7.5292969 7.0195312 C 7.7212969 6.8095312 7.9526562 6.6472031 8.2226562 6.5332031 C 8.4986562 6.4132031 8.8064375 6.3535156 9.1484375 6.3535156 z M 9.1582031 6.8847656 C 8.9062031 6.8847656 8.6804219 6.9295312 8.4824219 7.0195312 C 8.2904219 7.1035313 8.1262813 7.2266719 7.9882812 7.3886719 C 7.8502813 7.5446719 7.743875 7.7330781 7.671875 7.9550781 C 7.599875 8.1710781 7.5644531 8.4117812 7.5644531 8.6757812 C 7.5644531 8.9817813 7.6074063 9.2447969 7.6914062 9.4667969 C 7.7754063 9.6827969 7.883625 9.8600469 8.015625 9.9980469 C 8.153625 10.136047 8.3084219 10.238688 8.4824219 10.304688 C 8.6564219 10.364687 8.8336719 10.394531 9.0136719 10.394531 C 9.2776719 10.394531 9.518375 10.355344 9.734375 10.277344 C 9.9563749 10.199344 10.126094 10.109812 10.246094 10.007812 L 10.246094 7.0097656 C 10.144094 6.9797656 10.013562 6.9536875 9.8515625 6.9296875 C 9.6895625 6.8996875 9.4582031 6.8847656 9.1582031 6.8847656 z M 2.1933594 8.1074219 L 2.1933594 10.564453 C 2.2833594 10.576453 2.4176562 10.591375 2.5976562 10.609375 C 2.7776563 10.621375 2.9604844 10.628906 3.1464844 10.628906 C 3.4224844 10.628906 3.6892656 10.610219 3.9472656 10.574219 C 4.2112656 10.538219 4.442625 10.472953 4.640625 10.376953 C 4.838625 10.280953 4.9971875 10.148469 5.1171875 9.9804688 C 5.2371875 9.8124687 5.2988281 9.5960312 5.2988281 9.3320312 C 5.2988281 9.0920313 5.255875 8.8942813 5.171875 8.7382812 C 5.087875 8.5762813 4.9685 8.449375 4.8125 8.359375 C 4.6565 8.263375 4.4643281 8.1981094 4.2363281 8.1621094 C 4.0143281 8.1261094 3.7642812 8.1074219 3.4882812 8.1074219 L 2.1933594 8.1074219 z M 13.050781 8.7539062 C 13.253581 8.7539062 13.426013 8.7793781 13.570312 8.8300781 C 13.718512 8.8807781 13.841953 8.953275 13.939453 9.046875 C 14.036953 9.136575 14.10945 9.2463 14.15625 9.375 C 14.20305 9.4997999 14.226563 9.6350031 14.226562 9.7832031 C 14.226562 10.021103 14.161903 10.217041 14.033203 10.369141 C 13.908403 10.517341 13.745774 10.625106 13.546875 10.691406 C 13.656075 10.718706 13.761882 10.759859 13.863281 10.818359 C 13.968581 10.872959 14.062631 10.945456 14.144531 11.035156 C 14.226431 11.120956 14.29305 11.226762 14.34375 11.351562 C 14.39445 11.476363 14.417969 11.623316 14.417969 11.791016 C 14.417969 11.962616 14.388572 12.119372 14.326172 12.263672 C 14.267672 12.407972 14.177541 12.535331 14.056641 12.644531 C 13.939641 12.749831 13.788768 12.834084 13.605469 12.896484 C 13.422169 12.954984 13.208591 12.984375 12.962891 12.984375 C 12.834191 12.984375 12.714669 12.974578 12.605469 12.955078 C 12.500169 12.939478 12.406119 12.919884 12.324219 12.896484 C 12.242319 12.873084 12.171781 12.849572 12.113281 12.826172 C 12.058681 12.802772 12.017534 12.783178 11.990234 12.767578 L 12.089844 12.427734 C 12.113244 12.443334 12.152431 12.462928 12.207031 12.486328 C 12.261631 12.509728 12.326291 12.533241 12.400391 12.556641 C 12.478391 12.576141 12.564603 12.593775 12.658203 12.609375 C 12.755703 12.624975 12.861509 12.632813 12.974609 12.632812 C 13.345109 12.632812 13.609631 12.556397 13.769531 12.404297 C 13.929431 12.248297 14.009766 12.040597 14.009766 11.779297 C 14.009766 11.607697 13.976456 11.464663 13.910156 11.351562 C 13.847756 11.238463 13.759584 11.148331 13.646484 11.082031 C 13.537284 11.011831 13.407966 10.962847 13.259766 10.935547 C 13.115466 10.904347 12.962628 10.888672 12.798828 10.888672 L 12.740234 10.888672 L 12.740234 10.574219 L 12.875 10.574219 C 12.9803 10.574219 13.086112 10.564422 13.195312 10.544922 C 13.308412 10.521522 13.4103 10.480375 13.5 10.421875 C 13.5936 10.363375 13.670016 10.285 13.728516 10.1875 C 13.790916 10.09 13.822266 9.9646001 13.822266 9.8125 C 13.822266 9.6838 13.800713 9.5760281 13.757812 9.4863281 C 13.714912 9.3927281 13.656131 9.3182719 13.582031 9.2636719 C 13.511831 9.2090719 13.427578 9.1698844 13.330078 9.1464844 C 13.236478 9.1191844 13.138503 9.1054687 13.033203 9.1054688 C 12.822603 9.1054688 12.658016 9.1348594 12.541016 9.1933594 C 12.424016 9.2518594 12.328006 9.3067219 12.253906 9.3574219 L 12.089844 9.0585938 C 12.128844 9.0312937 12.177828 8.9999437 12.236328 8.9648438 C 12.298728 8.9297437 12.371225 8.8964344 12.453125 8.8652344 C 12.535025 8.8340344 12.625156 8.8085625 12.722656 8.7890625 C 12.824056 8.7656625 12.933781 8.7539062 13.050781 8.7539062 z "
     id="path4" />
</svg>

<svg xmlns="http://www.w3.org/2000/svg" viewBox="0 0 16 16">
 <path d="m 1.6 0 c -0.886 0 -1.6 0.713 -1.6 1.6 l 0 12.801 c 0 0.886 0.713 1.6 1.6 1.6 l 12.801 0 c 0.886 0 1.6 -0.713 1.6 -1.6 l 0 -12.801 c 0 -0.886 -0.713 -1.6 -1.6 -1.6 l -12.801 0 z m 1.539 4.805 c 0.336 0 0.653 0.028 0.953 0.082 c 0.306 0.054 0.573 0.144 0.801 0.27 c 0.228 0.126 0.409 0.294 0.541 0.504 c 0.138 0.204 0.207 0.46 0.207 0.766 c 0 0.336 -0.088 0.623 -0.262 0.863 c -0.168 0.234 -0.396 0.396 -0.684 0.486 c 0.18 0.042 0.344 0.102 0.494 0.18 c 0.15 0.078 0.282 0.181 0.396 0.307 c 0.114 0.12 0.202 0.269 0.262 0.449 c 0.066 0.174 0.098 0.385 0.098 0.631 c 0 0.588 -0.233 1.038 -0.701 1.35 c -0.468 0.306 -1.192 0.459 -2.17 0.459 c -0.102 0 -0.221 -0.006 -0.359 -0.018 c -0.132 -0.006 -0.27 -0.019 -0.414 -0.037 c -0.138 -0.012 -0.27 -0.027 -0.396 -0.045 c -0.126 -0.024 -0.232 -0.048 -0.322 -0.072 l 0 -6 c 0.108 -0.03 0.227 -0.054 0.359 -0.072 c 0.132 -0.024 0.266 -0.043 0.404 -0.055 c 0.144 -0.018 0.282 -0.029 0.414 -0.035 c 0.138 -0.006 0.265 -0.01 0.379 -0.01 z m 0 0.521 c -0.222 0 -0.412 0.008 -0.568 0.02 c -0.15 0.012 -0.275 0.027 -0.377 0.045 l 0 2.195 l 1.188 0 c 0.222 0 0.433 -0.015 0.631 -0.045 c 0.198 -0.036 0.368 -0.096 0.512 -0.18 c 0.15 -0.09 0.268 -0.208 0.352 -0.352 c 0.084 -0.15 0.127 -0.338 0.127 -0.566 c 0 -0.204 -0.047 -0.376 -0.137 -0.514 c -0.09 -0.144 -0.219 -0.262 -0.387 -0.352 c -0.162 -0.09 -0.356 -0.152 -0.584 -0.188 c -0.228 -0.042 -0.48 -0.064 -0.756 -0.064 z m 6.01 1.027 c 0.432 0 0.777 0.03 1.035 0.09 c 0.264 0.054 0.48 0.108 0.648 0.162 l 0 4.248 c 0 0.696 -0.181 1.19 -0.541 1.484 c -0.36 0.3 -0.903 0.449 -1.629 0.449 c -0.3 0 -0.572 -0.022 -0.818 -0.07 c -0.24 -0.042 -0.447 -0.094 -0.621 -0.154 l 0.117 -0.531 c 0.144 0.066 0.34 0.124 0.586 0.172 c 0.252 0.048 0.504 0.072 0.756 0.072 c 0.552 0 0.949 -0.108 1.195 -0.324 c 0.252 -0.21 0.379 -0.574 0.379 -1.09 l 0 -0.305 c -0.036 0.03 -0.09 0.065 -0.162 0.107 c -0.072 0.036 -0.162 0.075 -0.27 0.117 c -0.102 0.042 -0.223 0.077 -0.361 0.107 c -0.132 0.024 -0.281 0.037 -0.449 0.037 c -0.27 0 -0.531 -0.043 -0.783 -0.127 c -0.252 -0.084 -0.474 -0.216 -0.666 -0.396 c -0.186 -0.18 -0.335 -0.409 -0.449 -0.691 c -0.114 -0.288 -0.172 -0.637 -0.172 -1.045 c 0 -0.33 0.052 -0.636 0.154 -0.918 c 0.102 -0.282 0.246 -0.525 0.432 -0.729 c 0.192 -0.21 0.423 -0.372 0.693 -0.486 c 0.276 -0.12 0.584 -0.18 0.926 -0.18 z m 0.01 0.531 c -0.252 0 -0.478 0.045 -0.676 0.135 c -0.192 0.084 -0.356 0.207 -0.494 0.369 c -0.138 0.156 -0.244 0.344 -0.316 0.566 c -0.072 0.216 -0.107 0.457 -0.107 0.721 c 0 0.306 0.043 0.569 0.127 0.791 c 0.084 0.216 0.192 0.393 0.324 0.531 c 0.138 0.138 0.293 0.241 0.467 0.307 c 0.174 0.06 0.351 0.09 0.531 0.09 c 0.264 0 0.505 -0.039 0.721 -0.117 c 0.222 -0.078 0.392 -0.168 0.512 -0.27 l 0 -2.998 c -0.102 -0.03 -0.233 -0.056 -0.395 -0.08 c -0.162 -0.03 -0.393 -0.045 -0.693 -0.045 z m -6.965 1.223 l 0 2.457 c 0.09 0.012 0.224 0.027 0.404 0.045 c 0.18 0.012 0.363 0.02 0.549 0.02 c 0.276 0 0.543 -0.019 0.801 -0.055 c 0.264 -0.036 0.495 -0.101 0.693 -0.197 c 0.198 -0.096 0.357 -0.228 0.477 -0.396 c 0.12 -0.168 0.182 -0.384 0.182 -0.648 c 0 -0.24 -0.043 -0.438 -0.127 -0.594 c -0.084 -0.162 -0.203 -0.289 -0.359 -0.379 c -0.156 -0.096 -0.348 -0.161 -0.576 -0.197 c -0.222 -0.036 -0.472 -0.055 -0.748 -0.055 l -1.295 0 z m 10.857 0.646 c 0.203 0 0.375 0.025 0.52 0.076 c 0.148 0.051 0.272 0.123 0.369 0.217 c 0.098 0.09 0.17 0.199 0.217 0.328 c 0.047 0.125 0.07 0.26 0.07 0.408 c 0 0.238 -0.065 0.434 -0.193 0.586 c -0.125 0.148 -0.287 0.256 -0.486 0.322 c 0.109 0.027 0.215 0.068 0.316 0.127 c 0.105 0.055 0.199 0.127 0.281 0.217 c 0.082 0.086 0.149 0.192 0.199 0.316 c 0.051 0.125 0.074 0.272 0.074 0.439 c 0 0.172 -0.029 0.328 -0.092 0.473 c -0.059 0.144 -0.149 0.272 -0.27 0.381 c -0.117 0.105 -0.268 0.19 -0.451 0.252 c -0.183 0.059 -0.397 0.088 -0.643 0.088 c -0.129 0 -0.248 -0.01 -0.357 -0.029 c -0.105 -0.016 -0.199 -0.035 -0.281 -0.059 c -0.082 -0.023 -0.152 -0.047 -0.211 -0.07 c -0.055 -0.023 -0.096 -0.043 -0.123 -0.059 l 0.1 -0.34 c 0.023 0.016 0.063 0.035 0.117 0.059 c 0.055 0.023 0.119 0.047 0.193 0.07 c 0.078 0.019 0.164 0.037 0.258 0.053 c 0.098 0.016 0.203 0.023 0.316 0.023 c 0.371 0 0.635 -0.076 0.795 -0.229 c 0.16 -0.156 0.24 -0.364 0.24 -0.625 c 0 -0.172 -0.033 -0.315 -0.1 -0.428 c -0.062 -0.113 -0.151 -0.203 -0.264 -0.27 c -0.109 -0.07 -0.239 -0.119 -0.387 -0.146 c -0.144 -0.031 -0.297 -0.047 -0.461 -0.047 l -0.059 0 l 0 -0.314 l 0.135 0 c 0.105 0 0.211 -0.01 0.32 -0.029 c 0.113 -0.023 0.215 -0.065 0.305 -0.123 c 0.094 -0.059 0.17 -0.137 0.229 -0.234 c 0.062 -0.098 0.094 -0.223 0.094 -0.375 c 0 -0.129 -0.022 -0.236 -0.064 -0.326 c -0.043 -0.094 -0.102 -0.168 -0.176 -0.223 c -0.07 -0.055 -0.154 -0.094 -0.252 -0.117 c -0.094 -0.027 -0.192 -0.041 -0.297 -0.041 c -0.211 0 -0.375 0.029 -0.492 0.088 c -0.117 0.059 -0.213 0.113 -0.287 0.164 l -0.164 -0.299 c 0.039 -0.027 0.088 -0.059 0.146 -0.094 c 0.062 -0.035 0.135 -0.068 0.217 -0.1 c 0.082 -0.031 0.172 -0.057 0.27 -0.076 c 0.101 -0.023 0.211 -0.035 0.328 -0.035 z" style="fill:#ececec;fill-opacity:1"/>
</svg>
